remix/Business/bar-chart-grouped-fill.svg

<svg viewBox="0 0 24 24" xmlns="http://www.w3.org/2000/svg"><path fill="none" d="M0 0h24v24H0Z"/><path d="M2 12h2v9H2v-9Zm3 2h2v7H5v-7Zm11-6h2v13h-2V8Zm3 2h2v11h-2V10ZM9 2h2v19H9V2Zm3 2h2v17h-2V4Z"/></svg>

<svg viewBox="0 0 24 24" fill="currentColor" xmlns="http://www.w3.org/2000/svg"><path d="M2 12H4V21H2V12ZM5 14H7V21H5V14ZM16 8H18V21H16V8ZM19 10H21V21H19V10ZM9 2H11V21H9V2ZM12 4H14V21H12V4Z"/></svg>
